X:9
T:Paddy's Green Island
R:song air
H:About the same pace as Moore's "Dear Harp of my Country".
H:This graceful air I copied from a MS. lent me by the late John O'Daly,
H:of Anglesea Street, Dublin.
B:
M:6/8
L:1/8
K:C
g3/4f/4|ecc dcc|AcA GEF|Gcc edc|Bdd d2 g3/4f/4|
ecc dcc|A/c3/2A GEF|Gge dc3/2d/|ecc c2||
e/d/|ceg gec|ceg gec|fga gec|Bde Hf2 g3/4f/4|
ecc dcc|A/c3/2A GEF|Gge dc3/2d|ecc c2|]
